img/svg_icons/tw.svg

<svg width="25" height="25" viewBox="0 0 25 25" fill="none" xmlns="http://www.w3.org/2000/svg">
<path fill-rule="evenodd" clip-rule="evenodd" d="M21.7244 0.365132C23.357 0.375594 24.6739 1.70955 24.6635 3.3421L24.5462 21.6372C24.5358 23.2697 23.2018 24.5867 21.5693 24.5763L3.27418 24.459C1.64163 24.4486 0.324663 23.1146 0.335124 21.4821L0.452359 3.18696C0.46282 1.55441 1.79673 0.237436 3.42933 0.247898L21.7244 0.365132V0.365132ZM9.58824 20.3637C16.0164 20.4049 19.5654 15.1009 19.595 10.4844C19.5959 10.3323 19.5969 10.1801 19.5906 10.0351C20.275 9.54666 20.8732 8.93446 21.3488 8.2345C20.7238 8.50591 20.0486 8.69003 19.3378 8.77244C20.0653 8.34223 20.6204 7.66454 20.8866 6.84729C20.2101 7.24155 19.4618 7.52669 18.6636 7.68099C18.0302 6.99568 17.127 6.56954 16.1197 6.56308C14.1919 6.55073 12.6165 8.1061 12.6042 10.0338C12.6024 10.3092 12.6297 10.5775 12.6932 10.8316C9.78808 10.668 7.22428 9.26011 5.51304 7.1329C5.21259 7.64553 5.03481 8.24591 5.03072 8.88368C5.02297 10.0939 5.6321 11.1705 6.57022 11.7998C5.9978 11.7816 5.46254 11.6187 4.99313 11.3548L4.99285 11.3983C4.98199 13.0941 6.17602 14.5078 7.77555 14.8441C7.48517 14.922 7.17326 14.9635 6.85436 14.9614C6.6297 14.96 6.41246 14.9369 6.19531 14.892C6.62848 16.2863 7.91198 17.3019 9.44092 17.3406C8.23918 18.2679 6.72822 18.8162 5.09038 18.8057C4.80774 18.8039 4.53243 18.7877 4.25726 18.7497C5.77998 19.7596 7.61702 20.3511 9.58824 20.3637Z" fill="white"/>
</svg>

<svg width="25" height="25" fill="none" xmlns="http://www.w3.org/2000/svg"><path fill-rule="evenodd" clip-rule="evenodd" d="M21.724.365a2.96 2.96 0 012.94 2.977l-.118 18.295a2.96 2.96 0 01-2.977 2.94l-18.295-.118a2.96 2.96 0 01-2.939-2.977L.452 3.187A2.96 2.96 0 013.43.247l18.295.118zM9.588 20.364c6.428.04 9.977-5.263 10.007-9.88 0-.152.002-.304-.004-.449a7.16 7.16 0 001.758-1.8c-.625.27-1.3.455-2.011.537a3.493 3.493 0 001.549-1.925 7.076 7.076 0 01-2.223.834 3.478 3.478 0 00-2.544-1.118 3.495 3.495 0 00-3.427 4.269 9.914 9.914 0 01-7.18-3.7 3.505 3.505 0 00-.482 1.752A3.48 3.48 0 006.57 11.8a3.434 3.434 0 01-1.578-.445v.043a3.498 3.498 0 002.783 3.446 3.48 3.48 0 01-1.58.048 3.49 3.49 0 003.245 2.449 7.024 7.024 0 01-5.184 1.409 9.736 9.736 0 005.331 1.614z" fill="#fff"/></svg>
